src/pos-icons/keyboard-off.svg

<svg height="24" viewBox="0 0 24 24" width="24" xmlns="http://www.w3.org/2000/svg"><path d="m1 4.27 1.28-1.27 17.72 17.72-1.27 1.28-3-3h-11.73c-1.11 0-2-.9-2-2v-10c0-.5.18-.93.46-1.27zm18 5.73v-2h-2v2zm0 3v-2h-2v2zm-3-3v-2h-2v2zm0 3v-2h-2v1.18l-2.18-2.18h1.18v-2h-2v1.18l-1.18-1.18-3-3h13.18a2 2 0 0 1 2 2v10c0 .86-.54 1.59-1.3 1.87l-5.88-5.87zm-8 2v2h5.73l-2-2zm-3-5h1.73l-1.73-1.73zm2 3v-2h-2v2zm1 0h1.73l-1.73-1.73z"/></svg>

<?xml version="1.0" encoding="UTF-8"?><!DOCTYPE svg PUBLIC "-//W3C//DTD SVG 1.1//EN" "http://www.w3.org/Graphics/SVG/1.1/DTD/svg11.dtd"><svg xmlns="http://www.w3.org/2000/svg" xmlns:xlink="http://www.w3.org/1999/xlink" version="1.1" id="mdi-keyboard-off" width="24" height="24" viewBox="0 0 24 24"><path d="M1,4.27L2.28,3L20,20.72L18.73,22L15.73,19H4C2.89,19 2,18.1 2,17V7C2,6.5 2.18,6.07 2.46,5.73L1,4.27M19,10V8H17V10H19M19,13V11H17V13H19M16,10V8H14V10H16M16,13V11H14V12.18L11.82,10H13V8H11V9.18L9.82,8L6.82,5H20A2,2 0 0,1 22,7V17C22,17.86 21.46,18.59 20.7,18.87L14.82,13H16M8,15V17H13.73L11.73,15H8M5,10H6.73L5,8.27V10M7,13V11H5V13H7M8,13H9.73L8,11.27V13Z" /></svg>
